X:344050
T: The Little Cascade
C: G.S. MacLennan
B: https://thesession.org/tunes/1368
H:
O:Kevin Fraser
Z:Kevin Fraser
Q:1/2=105
K:HP
M:2/2
L:1/8
R:Reel
U: R = ///
U: r = //
U: V = !accent!
V:M gstem=up stem=down name="Melody" sname="Melody" 
V:H gstem=up stem=down name="Harmony" sname="Harmony"
V:C gstem=up stem=down name="C-Harmony" sname="C-Harmony"
V:S gstem=up stem=down dyn=up stafflines=1 clef=perc middle=G name="Snare" sname="Snare" sname="Snare"
V:B gstem=up stem=down clef=none dyn=up name="Bass" sname="Bass"
V:T gstem=up stem=down clef=none dyn=up name="Tenor" sname="Tenor"
V:BB gstem=up stem=down name="Brass Bass" sname="ABCD-C" transpose=-1  octave=-1 clef=bass
V:BC gstem=up stem=down name="Brass Chord" sname="ABCD-D" transpose=-1
V:BD gstem=up stem=down name="Brass Chord 2" sname="ABCD-B" transpose=-1
V:P gstem=up stem=down name="Piano" octave=-1
I:MIDI=program 110
%%MIDI gracedivider 4
% %score {M S B T}
%%MIDI program 109 #bagpipes
%%MIDI vol 100
[K: Edor]
[V:M]|Beeg geBg|geeB gBeg|Beeg geBg|fdAe fagf|
[V:M]Beeg geBg|geeB gBeg|Beeg geBg|fagf fe eg|
[V:M]|:fBgf egbg|fBag gffg|fBgf egBg|fagf fe eg:|
[V:M]G2 Be Bege|g2 fg egBe|G2 ce cege|fdAd fagf|
[V:M]G2 Be Bege|g2 fg egBe|G2 Be geBg|fagf fe ef|
[V:M]|:gefg efge|fdef defd|gefg efge|fage fe ef:|
[V:M]|:Begf e2 fd|Bedf edBA|Begf e2 fd|Bedf fe eg:|
[V:M]GdBe df e2|gfge Bega|GdBe df e2|Bedf feeg|
[V:M]GdBe df e2|gfge Bega|gfge eded|Bedf feeg||
[K: Amix]
[V:M]|e|B>ee>g g>eB>g|g>fe>B g>Be<g|B>ee>g g>eB>g|f>dA>d f<ag<f|
[V:M]B>ee>g g>eB>g|g>fe>B g>Be<g|B>ee>g g>eB>g|f<ag>f f>ee3/2||
[V:M]|:g/|f>Bg>f e<gB>g|f>Ba>g g>ff>g|f>Bg>f e<gB>g|f<ag>f f>ee3/2:|
[V:M]g/|G2B<e B<eg>e|g2f<g e>gB<e|G2B<e B<eg>e|f>dA>d f<ag<f|
[V:M]G2B<e B<eg>e|g2f<g e>gB<e|G2B<e g>eB>g|f<ag>f f>ee3/2||
[V:M]|:f/|g2(3efg e>fg>e|f2(3def d>ef>d|g2(3efg e>fg>e|f<ag>f f>ee3/2:|
[V:M]|:g/|B<eg>f e2f>d|B<ed<f e>dB<A|B<eg>f e2f>d|B<ed<f f>ee3/2:|
[V:M]g/|G>dB<e d<fe2|g>fg>e B>eg<a|G>dB<e d<fe2|B<ed<f f>ee>g|
[V:M]G>dB<e d<fe2|g>fg>e B>eg<a|g>fg>e f>de>d|B<ed<f f>ee2||

